!!!OTL: LIEBLICH HAT SICH GESELLET
!!!ARE: Europa, Mitteleuropa, Deutschland
!!!SCT: E0456
!!!YEM: Copyright 1995, estate of Helmut Schaffrath.
**kern
*ICvox
*Ivox
*M3/4
*k[b-]
*F:
{4f
=1
2a
4a
=2
2a
4f
=3
2cc
4dd
=4
2cc}
{4dd
=5
2cc
4b-
=6
4a
2g
=7
[2.f
=8
4f]
4r}
{4f
=9
2a
4a
=10
2a
4f
=11
2cc
4dd
=12
2cc}
{4dd
=13
2cc
4b-
=14
4a
2g
=15
[2.f
=16
4f]
4r}
{4ff
=17
2ff
4ff
=18
2ee
4ee
=19
4ff
2dd
=20
2cc}
{4ff
=21
4ee
4.gg
8ff
=22
4ee
2dd
=23
[2.cc
=24
4cc]
4r}
{4dd
=25
2cc
4b-
=26
4a
2g
=27
[2.f
=28
4f]
4r}
==
!!!AGN: Liebes - Lied
!!!ONB: ESAC (Essen Associative Code) Database: ERK1
!!!AMT: simple triple
!!!AIN: vox
!!!EED: Helmut Schaffrath
!!!EEV: 1.0
*-
